!!!Genre:	Lomir zikh iberbetn
!!!Mode:	Freygish
!!!Listening/dance:	dance
!!!One_Mode:	no
**kern
*thru
*I"P1
*clefG2
*k[b-e-a-]
*G:frey
*M2/4
*>A
=1
8dL
16gL
16gJJ
8gL
8gJ
=2
8bnL
16a-L
16bJJ
8a-L
8gJ
=3
8bnL
16a-L
16bJJ
8a-L
8gJ
=4
8bnL
16a-L
16bJJ
8a-L
8gJ
*>bM
*c:
=5
8ccL
8g
8ee-
8ddJ
=6
2cc
=7
8ccL
8g
8ee-
8ddJ
=8
2cc
*>eM
*G:frey
=9!|:
*>B
16bnLL
16ccJJ
4dd
8cc
=10
8ccL
16bnL
16ccJJ
16bLL
16a-
16g
16fJJ
=11
16enLL
16f
16g
16a-JJ
16bnLL
16cc
16b
16a-JJ
*>B1
=12
8gL
8bn
8dd
8ggJ
*>B2
=13:|!
4g
4g
==
*-
